assets/images/legend/ash/ultimate.svg

<svg height="512" viewBox="0 0 135.46666 135.46667" width="512" xmlns="http://www.w3.org/2000/svg"><g fill="#273839" stroke-width=".352778" transform="matrix(1.083722 0 0 1.0837227 1.593334 3.787731)"><path d="m64.492148 105.8764 5.320397 3.2785c-2.047855-18.317342-3.293475-36.707614-1.448304-55.378866l4.182498 2.182308c-2.135744 20.86711.890807 41.734221 4.199356 62.601328-7.945803-2.30608-11.236884-7.00165-12.253947-12.68327zm-.353688-2.1243c-1.577906-17.045898-2.549455-34.414211-1.308035-52.325979.388119.322111.860459.436058 1.022645.01341.235539-.613806-.401331-2.007574-.917346-2.007574-.187201 0-.340367-.3175-.340367-.705556 0-.806076.133082-.847957 1.081525-.340367 1.295981.693361.504274-1.456092-.02319-1.952688-1.016558-.919971-.922528-1.655399.176388-1.379587 1.116154.280134.865616-.09819.08819-1.740955-.269399-.573338-.631528-1.093056-.860517-1.818347-.533508-2.305155-.190393-2.695476 1.100296-3.611506 2.380689-1.678524 1.967413-3.704329.525093-5.224733-1.752754-1.975678-.7554-2.410733.645879-3.727168.951434 1.341653 3.463371 3.302874 3.109221 4.840012-.210767 2.026153.03678 3.665418.238554 5.713084l4.577923 1.945643-1.424841 12.373356-4.549119-2.118677c-2.057315 18.128955-1.694239 36.257911.528877 54.386862zm8.239259-64.29036c-2.656123-1.197694-2.591018-1.077189-2.853852-5.282425-.124569-1.993057-.367108-3.005043-.899347-3.752507-.96188-1.350835-1.042973-3.737584-.18137-5.337972 1.406215-2.61197.577476-15.4613924-1.078516-16.7222004-1.796406-2.3814344-.728452-4.8898052-.067476-6.324723 1.008934-2.1837035 1.405372-2.7230062 1.902344-2.5878901.345288.093877 1.060542.2668816 1.589444.3844535.804841.1789104 1.247408.8026383 2.714149 3.8251496 2.058744 4.242459 2.2739 5.018211 3.010764 10.8554444.950274 7.52779.633116 26.538672-.440736 26.418365zm-1.586223-38.0123814c-2.31999-.3197766-1.97934-.45617174-3.210129 3.66986.110673.08717 4.522145 1.099372 5.356514 1.229035.427215-1.0096323-1.640144-4.7297484-2.146385-4.898895z"/><path d="m50.779236 99.380382-8.076768 1.380348 4.807666-3.077957-5.582867-4.226406-18.053244 7.227633 19.908513-13.888097c3.454481 3.394366 8.993206 7.665208 15.28695 9.246993l1.020496 6.232904c-3.267282-.63774-6.358776-1.62705-9.310746-2.895418zm28.277174 1.934448-1.015898-5.652063c16.810199-3.259582 24.581808-24.288718 23.060808-28.847222-7.432533 5.935214-9.312527 21.627852-23.754401 23.766118-1.036414-9.267666-1.542063-18.535332-1.507949-27.802998l36.3951-25.669868-8.93086 11.556332c1.4439 2.175374 2.1382 4.650593 2.70045 7.17863l9.16271-6.837394-8.55489 10.586124-.0628 5.202075c-.57558 22.388667-12.941303 31.80021-27.49227 36.520266zm21.39048-41.799709c-.11863-1.503066-.872045-5.336851-1.733591-6.275422l-3.28105 3.898773 1.068482 5.328161zm-93.5062014 40.793859 23.2154474-25.751511-.795903-4.481442-10.072322 7.681702 9.877778-13.846811c1.648827-19.271534 13.783685-33.007328 33.124233-37.636804.09208.09208-.396949.759824-1.086735 1.483866-1.698753 1.783117-2.021943 2.482089-1.687259 3.649072.277061.966051.240531.994425-2.422663 1.88178-8.486223 4.191853-21.406521 9.543922-21.53787 36.685537l4.112277-4.21106c.09531-12.688936 6.645391-24.595202 18.738417-28.2407.786374-.220415.82277-.169516.55288.773208-.158898.555039-.254867 1.48541-.213268 2.067493.232036 3.246568.189265 6.802772-.09012 7.493515-.198607.491017-.185145 1.092595.03551 1.587108.209981.470592.236277 1.229477.06427 1.855096l-.878713 12.282308-51.0068283 36.867903c-.00616-.0243.016405-.14026.070866-.14026zm40.5886054-17.083171 10.268818-7.383229.788031 14.777046c-4.477987-1.969374-8.002376-4.534747-11.056849-7.393817zm29.132957-36.463262c.185727-1.355002.352718-1.638667.970139-1.647955 1.543417-.02321 2.859579-1.78078 3.227809-4.31031.13417-.921632.34497-1.668642.46846-1.660024.42225.02946 5.10901 3.348838 5.21773 3.695418l-10.039423 7.419548c-.172806-1.109252.01033-2.418707.155285-3.496677zm4.714548-12.274788.16957-6.295282c3.717774 1.309055 7.057575 3.090575 10.06172 5.291666l15.546131-7.338502-17.083501 13.153748c-2.663094-2.073634-5.49718-3.805287-8.69392-4.81163zm-.05133-15.1875 10.26829-4.055996-10.1285 7.99627z" fill-opacity=".5"/></g></svg>

<?xml version="1.0" encoding="UTF-8" standalone="no"?>
<!-- Created with Inkscape (http://www.inkscape.org/) -->

<svg
   width="512"
   height="512"
   viewBox="0 0 135.46666 135.46667"
   version="1.1"
   id="svg5"
   inkscape:version="1.1.1 (3bf5ae0d25, 2021-09-20)"
   sodipodi:docname="Phase_Breach2.svg"
   xmlns:inkscape="http://www.inkscape.org/namespaces/inkscape"
   xmlns:sodipodi="http://sodipodi.sourceforge.net/DTD/sodipodi-0.dtd"
   xmlns="http://www.w3.org/2000/svg"
   xmlns:svg="http://www.w3.org/2000/svg">
  <sodipodi:namedview
     id="namedview7"
     pagecolor="#ffffff"
     bordercolor="#666666"
     borderopacity="1.0"
     inkscape:pageshadow="2"
     inkscape:pageopacity="0.0"
     inkscape:pagecheckerboard="0"
     inkscape:document-units="px"
     showgrid="false"
     units="px"
     inkscape:zoom="0.91223345"
     inkscape:cx="268.0235"
     inkscape:cy="280.08181"
     inkscape:window-width="1366"
     inkscape:window-height="697"
     inkscape:window-x="-8"
     inkscape:window-y="-8"
     inkscape:window-maximized="1"
     inkscape:current-layer="layer1" />
  <defs
     id="defs2" />
  <g
     inkscape:label="Layer 1"
     inkscape:groupmode="layer"
     id="layer1">
    <g
       id="g4807"
       transform="matrix(1.083722,0,0,1.0837227,1.5933338,3.7877312)">
      <path
         style="fill:#273839;fill-opacity:1;stroke-width:0.352778"
         d="m 64.492148,105.8764 5.320397,3.2785 C 67.76469,90.837558 66.51907,72.447286 68.364241,53.776034 l 4.182498,2.182308 c -2.135744,20.86711 0.890807,41.734221 4.199356,62.601328 -7.945803,-2.30608 -11.236884,-7.00165 -12.253947,-12.68327 z M 64.13846,103.7521 C 62.560554,86.706202 61.589005,69.337889 62.830425,51.426121 c 0.388119,0.322111 0.860459,0.436058 1.022645,0.01341 0.235539,-0.613806 -0.401331,-2.007574 -0.917346,-2.007574 -0.187201,0 -0.340367,-0.3175 -0.340367,-0.705556 0,-0.806076 0.133082,-0.847957 1.081525,-0.340367 1.295981,0.693361 0.504274,-1.456092 -0.02319,-1.952688 -1.016558,-0.919971 -0.922528,-1.655399 0.176388,-1.379587 1.116154,0.280134 0.865616,-0.09819 0.08819,-1.740955 -0.269399,-0.573338 -0.631528,-1.093056 -0.860517,-1.818347 -0.533508,-2.305155 -0.190393,-2.695476 1.100296,-3.611506 2.380689,-1.678524 1.967413,-3.704329 0.525093,-5.224733 -1.752754,-1.975678 -0.7554,-2.410733 0.645879,-3.727168 0.951434,1.341653 3.463371,3.302874 3.109221,4.840012 -0.210767,2.026153 0.03678,3.665418 0.238554,5.713084 l 4.577923,1.945643 -1.424841,12.373356 -4.549119,-2.118677 C 65.223444,69.813423 65.58652,87.942379 67.809636,106.07133 Z M 72.377719,39.46174 C 69.721596,38.264046 69.786701,38.384551 69.523867,34.179315 69.399298,32.186258 69.156759,31.174272 68.62452,30.426808 67.66264,29.075973 67.581547,26.689224 68.44315,25.088836 69.849365,22.476866 69.020626,9.6274436 67.364634,8.3666356 65.568228,5.9852012 66.636182,3.4768304 67.297158,2.0419126 c 1.008934,-2.1837035 1.405372,-2.7230062 1.902344,-2.5878901 0.345288,0.093877 1.060542,0.2668816 1.589444,0.3844535 0.804841,0.1789104 1.247408,0.8026383 2.714149,3.8251496 2.058744,4.242459 2.2739,5.018211 3.010764,10.8554444 0.950274,7.52779 0.633116,26.538672 -0.440736,26.418365 z M 70.791496,1.4493586 c -2.31999,-0.3197766 -1.97934,-0.45617174 -3.210129,3.66986 0.110673,0.08717 4.522145,1.099372 5.356514,1.229035 0.427215,-1.0096323 -1.640144,-4.7297484 -2.146385,-4.898895 z"
         id="path4230"
         sodipodi:nodetypes="ccccccccsssccscccccccccccccsssccsssscccccc" />
      <path
         style="fill:#273839;fill-opacity:0.5;stroke-width:0.352778"
         d="M 50.779236,99.380382 42.702468,100.76073 47.510134,97.682773 41.927267,93.456367 23.874023,100.684 43.782536,86.795903 c 3.454481,3.394366 8.993206,7.665208 15.28695,9.246993 l 1.020496,6.232904 C 56.8227,101.63806 53.731206,100.64875 50.779236,99.380382 Z M 79.05641,101.31483 78.040512,95.662767 C 94.850711,92.403185 102.62232,71.374049 101.10132,66.815545 93.668787,72.750759 91.788793,88.443397 77.346919,90.581663 76.310505,81.313997 75.804856,72.046331 75.83897,62.778665 l 36.3951,-25.669868 -8.93086,11.556332 c 1.4439,2.175374 2.1382,4.650593 2.70045,7.17863 l 9.16271,-6.837394 -8.55489,10.586124 -0.0628,5.202075 C 105.9731,87.183231 93.607377,96.594774 79.05641,101.31483 Z m 21.39048,-41.799709 c -0.11863,-1.503066 -0.872045,-5.336851 -1.733591,-6.275422 l -3.28105,3.898773 1.068482,5.328161 z M 6.9406886,100.30898 30.156136,74.557469 29.360233,70.076027 19.287911,77.757729 29.165689,63.910918 C 30.814516,44.639384 42.949374,30.90359 62.289922,26.274114 c 0.09208,0.09208 -0.396949,0.759824 -1.086735,1.483866 -1.698753,1.783117 -2.021943,2.482089 -1.687259,3.649072 0.277061,0.966051 0.240531,0.994425 -2.422663,1.88178 -8.486223,4.191853 -21.406521,9.543922 -21.53787,36.685537 l 4.112277,-4.21106 c 0.09531,-12.688936 6.645391,-24.595202 18.738417,-28.2407 0.786374,-0.220415 0.82277,-0.169516 0.55288,0.773208 -0.158898,0.555039 -0.254867,1.48541 -0.213268,2.067493 0.232036,3.246568 0.189265,6.802772 -0.09012,7.493515 -0.198607,0.491017 -0.185145,1.092595 0.03551,1.587108 0.209981,0.470592 0.236277,1.229477 0.06427,1.855096 L 57.876648,63.581337 6.8698197,100.44924 c -0.00616,-0.0243 0.016405,-0.14026 0.070866,-0.14026 z M 47.529294,83.225809 57.798112,75.84258 58.586143,90.619626 C 54.108156,88.650252 50.583767,86.084879 47.529294,83.225809 Z M 76.662251,46.762547 c 0.185727,-1.355002 0.352718,-1.638667 0.970139,-1.647955 1.543417,-0.02321 2.859579,-1.78078 3.227809,-4.31031 0.13417,-0.921632 0.34497,-1.668642 0.46846,-1.660024 0.42225,0.02946 5.10901,3.348838 5.21773,3.695418 l -10.039423,7.419548 c -0.172806,-1.109252 0.01033,-2.418707 0.155285,-3.496677 z m 4.714548,-12.274788 0.16957,-6.295282 c 3.717774,1.309055 7.057575,3.090575 10.06172,5.291666 L 107.15422,26.145641 90.070719,39.299389 c -2.663094,-2.073634 -5.49718,-3.805287 -8.69392,-4.81163 z m -0.05133,-15.1875 10.26829,-4.055996 -10.1285,7.99627 z"
         id="path4156"
         sodipodi:nodetypes="ccccccccccccccccccccccccccccccccssccccscsscccsccccccsssccccccccccccc" />
    </g>
  </g>
</svg>
